X:395
T: Wugenggu
N: C1430
O: China, Ningxia, Guyuan
S: I, 194]
R: Xiaodiao, Biaoda aiqing]
M: 2/4
L: 1/16
K: F
d2dcA2c2 | d3fd2c2 | d2dcA2c2 | d8
d2d2d2c2 | d2f2d2c2 | d2dcA2Ac | d8
d2dcd2c2 | A3cF2G2 | F2FGA2F2 | D8

